contributed-vectors/vector.svg

<?xml version="1.0" encoding="UTF-8" standalone="no"?>
<svg
   xmlns:dc="http://purl.org/dc/elements/1.1/"
   xmlns:cc="http://creativecommons.org/ns#"
   xmlns:rdf="http://www.w3.org/1999/02/22-rdf-syntax-ns#"
   xmlns:svg="http://www.w3.org/2000/svg"
   xmlns="http://www.w3.org/2000/svg"
   xmlns:sodipodi="http://sodipodi.sourceforge.net/DTD/sodipodi-0.dtd"
   xmlns:inkscape="http://www.inkscape.org/namespaces/inkscape"
   viewBox="0 0 192 192"
   version="1.1"
   id="svg16"
   sodipodi:docname="vector.svg"
   inkscape:version="0.92.4 (5da689c313, 2019-01-14)">
  <metadata
     id="metadata20">
    <rdf:RDF>
      <cc:Work
         rdf:about="">
        <dc:format>image/svg+xml</dc:format>
        <dc:type
           rdf:resource="http://purl.org/dc/dcmitype/StillImage" />
        <dc:title />
      </cc:Work>
    </rdf:RDF>
  </metadata>
  <sodipodi:namedview
     pagecolor="#ffffff"
     bordercolor="#666666"
     borderopacity="1"
     objecttolerance="10"
     gridtolerance="10"
     guidetolerance="10"
     inkscape:pageopacity="0"
     inkscape:pageshadow="2"
     inkscape:window-width="1920"
     inkscape:window-height="1017"
     id="namedview18"
     showgrid="true"
     inkscape:zoom="4.9166667"
     inkscape:cx="133.98706"
     inkscape:cy="70.396307"
     inkscape:window-x="-8"
     inkscape:window-y="-8"
     inkscape:window-maximized="1"
     inkscape:current-layer="svg16"
     inkscape:snap-global="true">
    <inkscape:grid
       type="xygrid"
       id="grid827"
       spacingx="4"
       spacingy="4" />
  </sodipodi:namedview>
  <defs
     id="defs4">
    <style
       id="style2">.a{fill:none;stroke:#b1b5bd;stroke-linecap:round;stroke-linejoin:round;isolation:isolate;opacity:0.63;}</style>
  </defs>
  <rect
     class="a"
     x="20"
     y="20"
     width="152"
     height="120"
     rx="10"
     id="rect6"
     style="opacity:1;isolation:isolate;fill:#9abeff;stroke:none;stroke-linecap:round;stroke-linejoin:round" />
  <path
     style="fill:#ffffff"
     d="M 20,96 108,20 H 92 L 20,92 Z"
     id="path829"
     inkscape:connector-curvature="0" />
  <path
     style="fill:#ffffff;stroke:none;stroke-width:1px;stroke-linecap:butt;stroke-linejoin:miter;stroke-opacity:1"
     d="M 172,90.564453 160.165,92.746094 160.157,108 123.25391,119.79688 109.62695,111.05078 35.390625,134.23633 30.101562,131.79688 20,135.62891 V 162 c 0,5.54 4.46,10 10,10 h 132 c 5.54,0 10,-4.46 10,-10 z"
     id="path831"
     inkscape:connector-curvature="0"
     sodipodi:nodetypes="ccccccccssssc" />
  <path
     style="fill:#56595b"
     d="M 172 140 L 20.195312 163.96875 C 21.105446 168.55884 25.134812 172 30 172 L 162 172 C 167.54 172 172 167.54 172 162 L 172 140 z "
     id="path833" />
  <path
     style="opacity:1;fill:#56595b"
     d="M 140.86914 38.435547 C 140.29606 38.427415 139.68271 38.429855 139.01758 38.441406 C 138.37005 38.452656 138.22665 39.494971 137.69531 39.865234 C 136.9722 40.369126 135.99035 40.396666 135.25391 40.880859 C 130.78005 43.822315 129.45703 52.169922 129.45703 52.169922 L 126.40625 52.779297 C 126.40625 52.779297 109.10793 45.661445 108.09375 45.644531 C 106.75309 45.622171 104.33984 47.083984 104.33984 47.083984 C 104.33984 47.083984 92.340688 45.41173 86.607422 45.265625 C 73.296283 44.926408 73.493117 44.287549 68.302734 46.560547 C 57.854405 51.136132 45.966797 54.710938 45.966797 54.710938 L 44.949219 57.457031 L 45.558594 58.779297 L 44.746094 59.289062 L 41.898438 59.083984 L 36.304688 61.525391 L 35.59375 63.865234 L 34.068359 66 L 34.576172 67.931641 L 34.169922 73.525391 L 37.322266 73.830078 L 39.558594 75.558594 L 44.033203 73.017578 L 46.271484 70.982422 L 50.542969 67.423828 L 53.185547 70.068359 L 58.068359 67.017578 L 58.330078 66.300781 C 58.330078 66.300781 67.98906 62.0412 71.390625 61.017578 C 72.467123 60.693631 73.530694 58.913544 73.957031 58.830078 C 74.214711 58.779628 75.042606 59.493536 75.660156 59.59375 C 76.441301 59.720512 77.209964 59.139727 78 59.185547 C 78.952984 59.240817 79.801393 59.862988 80.746094 60 C 82.121534 60.199483 83.547777 59.755973 84.916016 60 C 86.267467 60.241033 88.779297 61.423828 88.779297 61.423828 C 88.779297 61.423828 85.413626 62.406092 82.880859 63.966797 C 77.672039 63.276917 71.142491 63.58298 70.041016 63.691406 C 66.917452 63.998881 65.255345 68.838047 64.373047 72.101562 C 63.690404 74.62658 64.474609 79.728516 64.474609 79.728516 C 64.474609 79.728516 61.805001 82.261857 59.59375 83.390625 C 57.932361 84.238707 55.295612 85.277943 53.695312 86.236328 C 47.438978 89.983114 44.824715 94.264607 39.152344 98.847656 C 38.281819 99.551005 35.459062 102.01318 34.677734 102.81445 C 33.141829 104.38956 32.087277 106.77326 30.507812 108.30469 C 28.758768 110.00054 26.721325 110.73939 25.220703 112.47461 C 23.594293 114.35529 21.558594 118.88086 21.558594 118.88086 L 20 119.85156 L 20 143.79883 C 22.009774 141.36115 25.676506 137.08444 28.373047 135.05078 C 29.801317 133.97362 31.757467 133.72945 33.152344 132.60938 C 35.893593 130.40819 37.420648 126.88903 40.068359 124.57617 C 41.570277 123.26421 43.604928 122.79533 44.949219 121.32227 C 45.71564 120.48243 45.632058 119.03492 46.474609 118.27148 C 47.388994 117.44296 48.887607 117.6069 49.931641 116.94922 C 51.473538 115.97791 52.213227 113.87906 53.898438 113.18555 C 62.300085 109.72807 74.644531 105.15234 74.644531 105.15234 L 78.203125 109.01758 C 78.203125 109.01758 70.78649 112.31684 64.677734 115.32227 C 63.473305 115.91483 61.830078 118.16992 61.830078 118.16992 L 62.339844 119.49219 L 59.289062 123.55859 C 59.289062 123.55859 60.495172 126.45385 61.017578 127.93164 C 61.47937 129.23796 63.865234 129.66016 63.865234 129.66016 L 64.677734 133.62695 C 64.677734 133.62695 70.109624 138.21928 76.779297 139.83008 C 79.979783 140.60303 86.644531 139.32227 86.644531 139.32227 L 88.017578 137.92383 L 85.140625 132.17188 L 84.814453 128.94922 L 86.542969 127.62695 L 89.59375 126.91602 C 89.59375 126.91602 94.643536 121.88076 97.525391 120.86523 C 104.53006 118.39687 124.37305 110.74609 124.37305 110.74609 L 129.86523 105.9668 L 132.74219 97.851562 C 132.74219 97.851562 134.20278 100.04864 135.20312 100.88086 C 135.69291 101.28833 136.43912 101.33776 136.88086 101.79688 C 137.81302 102.7657 139.41576 105.12078 140.69922 106.42773 C 142.25016 108.00706 143.89493 108.8471 144.99219 110.76953 C 145.60545 111.84401 144.91459 112.53943 145.60156 113.56836 C 146.13426 114.36626 147.51676 115.15483 148.04297 115.95703 C 148.79499 117.1035 148.28826 118.09916 148.94141 119.30469 C 149.33031 120.02249 150.47323 120.7283 150.98633 121.36328 C 154.69988 125.95891 157.25121 129.67504 160.05469 134.38672 C 162.05616 137.7505 165.05078 144.10156 165.05078 144.10156 L 172 143.93945 L 172 129.73633 C 170.73686 127.18303 169.04298 124.84515 167.89844 122.23633 C 167.00696 120.2043 166.92006 117.82549 165.76367 115.93164 C 164.16457 113.31275 160.95502 111.94088 159.35547 109.32227 C 156.77682 105.10079 154.75461 101.8019 153.05078 98.644531 C 152.12376 96.926673 151.01758 93.152344 151.01758 93.152344 L 148.67773 87.865234 C 148.67773 87.865234 149.40629 87.405305 149.28906 87.101562 C 147.48618 82.430604 144.68443 77.884659 144.50781 76.982422 C 144.10873 74.943752 143.49219 70.880859 143.49219 70.880859 C 143.49219 70.880859 148.83326 66.079649 151.01758 63.253906 C 153.40687 60.163016 157.01758 53.185547 157.01758 53.185547 C 157.01758 53.185547 159.0435 52.077633 159.66016 51.152344 C 160.53568 49.83863 160.88086 46.576172 160.88086 46.576172 L 158.33984 46.880859 L 158.33984 45.253906 L 156.60938 45.152344 C 156.60938 45.152344 152.3757 41.346423 149.79688 40.271484 C 146.85329 39.044498 144.88072 38.492468 140.86914 38.435547 z "
     id="path835" />
  <path
     style="fill:#ffffff;"
     d="m 44.439864,57.673681 1.797729,-1.078637 5.321278,11.793103 -2.085366,1.150546 z"
     id="path837"
     inkscape:connector-curvature="0" />
  <path
     style="fill:#ffffff;stroke:none;stroke-width:1px;stroke-linecap:butt;stroke-linejoin:miter;stroke-opacity:1"
     d="M 172 131.21289 L 159.67188 138.73633 L 161.4707 140.96484 L 172 134.29297 L 172 131.21289 z "
     id="path839" />
  <path
     style="fill:#ffffff"
     d="m 76.372881,76.881356 6.20339,-3.355932 c 0,0 2.411747,1.981385 3.864407,2.440678 0.98699,0.312061 3.101695,0.152542 3.101695,0.152542 0,0 -1.355857,4.025763 -1.169491,4.627119 0.229803,0.741517 1.51284,1.243395 5.084745,0.966102 1.550598,-0.120376 3.125323,-1.282632 4.677966,-1.372882 5.861327,-0.340701 12.419247,1.655164 17.542377,0.457627 3.44334,-0.804885 6.4474,-4.292146 7.47457,-4.830508 0.90098,-0.472224 2.04003,-0.222833 3,-0.559323 0.81575,-0.285938 2.12534,-0.717421 2.23729,-1.677966 0.10625,-0.911591 -0.15254,-2.288135 -0.15254,-2.288135 l -0.55932,-0.762712 c 0,0 -2.3467,0.02285 -4.42374,0.305085 -1.16962,0.158931 -1.57656,2.406802 -2.49151,3.152542 -1.76681,1.440046 -4.13767,2.174314 -6.40678,2.38983 -3.33707,0.316947 -9.81357,-1.830508 -9.81357,-1.830508 0,0 6.32376,-2.263448 9.20339,-5.440678 3.55435,-3.921682 8.76588,-10.310614 9.81356,-11.440678 0.49675,-0.535817 2.8612,-1.829781 3.66102,-1.423729 0.74761,0.379548 -0.88178,4.346278 -0.71186,6.20339 0.18872,2.062658 1.43025,6.754742 2.23728,7.677966 1.732,1.981371 8.74577,1.932204 8.74577,1.932204 0,0 -0.52169,1.82694 -0.76271,2.745763 -0.283,1.078834 -4.04596,4.607846 -6.55933,6.305084 -4.25011,2.870027 -8.07006,3.991618 -14.0339,6.305084 -2.14016,0.830201 -2.09908,2.754249 -3.40678,2.745764 -2.07951,-0.01349 -8.13668,-0.206021 -12.10169,0.559322 -1.568412,0.302741 -2.890323,0.812737 -4.525425,1.576271 -1.170785,0.546715 -2.885869,0.538775 -3.864407,-0.305085 -2.572505,-2.218447 -6.711864,-5.084746 -6.711864,-5.084746 l -1.463611,1.184229 -1.366274,-0.539319 0.179773,-1.510092 c 0,0 -4.501754,-3.706484 -5.824642,-6.220143 -0.490213,-0.931468 -0.677789,-3.084166 -0.677789,-3.084166 z"
     id="path841"
     inkscape:connector-curvature="0"
     sodipodi:nodetypes="ccscsssssssccssscssssscsssssssccccsc" />
  <path
     style="fill:#ffffff"
     d="m 83.975012,90.620416 2.085365,-2.049411 5.262456,4.526663 -4.566981,0.175411 z"
     id="path843"
     inkscape:connector-curvature="0"
     sodipodi:nodetypes="ccccc" />
</svg>

<svg xmlns="http://www.w3.org/2000/svg" viewBox="0 0 192 192"><rect width="152" height="120" x="20" y="20" rx="10" style="opacity:1;isolation:isolate;fill:#9abeff;stroke:none;stroke-linecap:round;stroke-linejoin:round"/><path d="m20 96 88-76H92L20 92Z" style="fill:#fff"/><path d="m172 90.564-11.835 2.182-.008 15.254-36.903 11.797-13.627-8.746-74.236 23.185-5.29-2.44L20 135.63V162c0 5.54 4.46 10 10 10h132c5.54 0 10-4.46 10-10z" style="fill:#fff;stroke:none;stroke-width:1px;stroke-linecap:butt;stroke-linejoin:miter;stroke-opacity:1"/><path d="M172 140 20.195 163.969A9.975 9.975 0 0 0 30 172h132c5.54 0 10-4.46 10-10v-22z" style="fill:#56595b"/><path d="M140.87 38.436a58.853 58.853 0 0 0-1.852.005c-.648.012-.791 1.054-1.323 1.424-.723.504-1.705.532-2.441 1.016-4.474 2.941-5.797 11.289-5.797 11.289l-3.05.61s-17.3-7.119-18.313-7.135c-1.34-.023-3.754 1.439-3.754 1.439s-12-1.672-17.733-1.818c-13.31-.34-13.114-.978-18.304 1.295-10.449 4.575-22.336 8.15-22.336 8.15l-1.018 2.746.61 1.322-.813.51-2.848-.205-5.593 2.441-.711 2.34L34.068 66l.508 1.932-.406 5.593 3.152.305 2.237 1.729 4.474-2.541 2.238-2.036 4.272-3.558 2.643 2.644 4.882-3.05.262-.717s9.66-4.26 13.06-5.283c1.077-.324 2.14-2.104 2.567-2.188.258-.05 1.086.664 1.703.764.781.127 1.55-.454 2.34-.408.953.055 1.801.677 2.746.814 1.376.2 2.802-.244 4.17 0 1.351.241 3.863 1.424 3.863 1.424s-3.365.982-5.898 2.543c-5.209-.69-11.739-.384-12.84-.276-3.124.308-4.786 5.147-5.668 8.41-.683 2.526.102 7.628.102 7.628s-2.67 2.533-4.881 3.662c-1.662.848-4.298 1.887-5.899 2.845-6.256 3.747-8.87 8.029-14.543 12.612-.87.703-3.693 3.165-4.474 3.966-1.536 1.576-2.59 3.96-4.17 5.49-1.75 1.697-3.787 2.435-5.287 4.17-1.627 1.881-3.662 6.407-3.662 6.407l-1.559.97V143.8c2.01-2.438 5.677-6.715 8.373-8.748 1.428-1.077 3.384-1.322 4.78-2.442 2.74-2.2 4.268-5.72 6.915-8.033 1.502-1.312 3.537-1.78 4.881-3.254.767-.84.683-2.287 1.526-3.05.914-.829 2.413-.665 3.457-1.323 1.542-.971 2.281-3.07 3.966-3.763 8.402-3.458 20.747-8.034 20.747-8.034l3.558 3.866s-7.417 3.299-13.525 6.304c-1.205.593-2.848 2.848-2.848 2.848l.51 1.322-3.05 4.067s1.205 2.895 1.728 4.373c.461 1.306 2.847 1.728 2.847 1.728l.813 3.967s5.432 4.592 12.101 6.203c3.2.773 9.866-.508 9.866-.508l1.373-1.398-2.877-5.752-.327-3.223 1.729-1.322 3.05-.711s5.05-5.035 7.932-6.05c7.005-2.47 26.848-10.12 26.848-10.12l5.492-4.78 2.877-8.114s1.46 2.197 2.461 3.029c.49.407 1.236.457 1.678.916.932.969 2.535 3.324 3.818 4.63 1.551 1.58 3.196 2.42 4.293 4.343.613 1.074-.077 1.77.61 2.798.532.798 1.915 1.587 2.441 2.389.752 1.147.245 2.142.898 3.348.39.717 1.532 1.423 2.045 2.058 3.714 4.596 6.265 8.312 9.069 13.024 2.001 3.363 4.996 9.715 4.996 9.715l6.949-.163v-14.203c-1.263-2.553-2.957-4.89-4.102-7.5-.891-2.032-.978-4.41-2.134-6.304-1.6-2.62-4.809-3.991-6.409-6.61-2.578-4.221-4.6-7.52-6.304-10.677-.927-1.718-2.033-5.493-2.033-5.493l-2.34-5.287s.728-.46.611-.763c-1.803-4.671-4.605-9.217-4.781-10.12-.4-2.038-1.016-6.101-1.016-6.101s5.341-4.801 7.526-7.627c2.389-3.091 6-10.068 6-10.068s2.025-1.108 2.642-2.034c.876-1.313 1.22-4.576 1.22-4.576l-2.54.305v-1.627l-1.73-.102s-4.234-3.806-6.813-4.88c-2.944-1.228-4.916-1.78-8.928-1.836z" style="opacity:1;fill:#56595b"/><path d="m44.44 57.674 1.798-1.079 5.32 11.793-2.084 1.15z" style="fill:#fff"/><path d="m172 131.213-12.328 7.523 1.799 2.229L172 134.293v-3.08z" style="fill:#fff;stroke:none;stroke-width:1px;stroke-linecap:butt;stroke-linejoin:miter;stroke-opacity:1"/><path d="m76.373 76.881 6.203-3.356s2.412 1.982 3.865 2.441c.987.312 3.101.153 3.101.153s-1.355 4.025-1.17 4.627c.23.741 1.514 1.243 5.086.966 1.55-.12 3.125-1.283 4.678-1.373 5.86-.34 12.419 1.655 17.542.458 3.443-.805 6.447-4.293 7.475-4.83.9-.473 2.04-.224 3-.56.815-.286 2.125-.718 2.237-1.678.106-.912-.153-2.288-.153-2.288l-.559-.763s-2.347.023-4.424.305c-1.17.159-1.576 2.407-2.491 3.153-1.767 1.44-4.138 2.174-6.407 2.39-3.337.316-9.814-1.831-9.814-1.831s6.324-2.264 9.204-5.44c3.554-3.922 8.766-10.311 9.813-11.441.497-.536 2.862-1.83 3.661-1.424.748.38-.881 4.346-.712 6.203.19 2.063 1.43 6.755 2.238 7.678 1.732 1.982 8.746 1.932 8.746 1.932s-.522 1.827-.763 2.746c-.283 1.079-4.046 4.608-6.56 6.305-4.25 2.87-8.07 3.992-14.033 6.305-2.14.83-2.1 2.755-3.407 2.746-2.08-.013-8.137-.206-12.102.56-1.568.302-2.89.812-4.525 1.576-1.171.546-2.886.538-3.865-.305-2.572-2.219-6.712-5.085-6.712-5.085l-1.463 1.184-1.366-.54.18-1.51s-4.502-3.706-5.825-6.22c-.49-.93-.678-3.084-.678-3.084z" style="fill:#fff"/><path d="m83.975 90.62 2.085-2.049 5.263 4.527-4.567.175z" style="fill:#fff"/></svg>
